X: 117
T: No_75_Healing_Song_(b).krn
N: Derived from No_75_Healing_Song_(b).krn
%%abc-version 2.0
%%abcx-abcm2ps-target-version 5.9.1 (29 Sep 2008)
%%abc-creator hum2abc beta
%%abcx-conversion-date 2019/03/15 08:35:45
%%humdrum-veritas 1581567339
%%humdrum-veritas-data 2104568833
%%linebreak <none>
%%barnumbers 0
L: 1/8
M: 2/4
K: G clef=bass
[K:clef=bass][M:2/4]z2D2 | 
D2DD ||  
[M:3/4]A,A,z2D2 | 
D2DD DD | 
D2DD z C ||  
[M:2/4]D2DD | 
C2CA, | 
A,2A,G, ||  
[M:4/4]G,3E, D, zG,2 ||  
[M:3/4]G,4G,G, | 
G,2G,2z A, ||  
[M:2/4]C2CB, | 
A,2A,G, | 
G,2G,E, ||  
[M:3/4]D,2D,D,/ z/D,2 ||  
[M:5/8]D,2D,D,D, | 
D,4z ||  
[M:2/4]D,2D,D, | 
B,,4 | 
G,,4 |]  



